Newaita/actions/24/draw-triangle2.svg

<svg height="24" viewBox="0 0 24 24" width="24" xmlns="http://www.w3.org/2000/svg"><path d="m19.839844 12.046875c-.015625-.335937-.203125-.640625-.496094-.808594l-13.890625-7.9375c-.308594-.175781-.683594-.175781-.988281 0-.304688.179688-.492188.503907-.492188.855469v15.878906c0 .351563.1875.675782.492188.851563.304687.175781.679687.179687.988281.003906l13.890625-7.9375c.320312-.183594.515625-.535156.496094-.90625zm-2.976563.046875-10.914062 6.238281v-12.472656zm0 0" fill="#424242"/></svg>

<svg xmlns="http://www.w3.org/2000/svg" xmlns:xlink="http://www.w3.org/1999/xlink" width="24px" height="24px" viewBox="0 0 24 24" version="1.1">
<g id="surface1">
     <defs>
  <style id="current-color-scheme" type="text/css">
   .ColorScheme-Text { color:#424242; } .ColorScheme-Highlight { color:#eeeeee; }
  </style>
 </defs>
<path style="fill:currentColor" class="ColorScheme-Text" d="M 19.839844 12.046875 C 19.824219 11.710938 19.636719 11.40625 19.34375 11.238281 L 5.453125 3.300781 C 5.144531 3.125 4.769531 3.125 4.464844 3.300781 C 4.160156 3.480469 3.972656 3.804688 3.972656 4.15625 L 3.972656 20.035156 C 3.972656 20.386719 4.160156 20.710938 4.464844 20.886719 C 4.769531 21.0625 5.144531 21.066406 5.453125 20.890625 L 19.34375 12.953125 C 19.664062 12.769531 19.859375 12.417969 19.839844 12.046875 Z M 16.863281 12.09375 L 5.949219 18.332031 L 5.949219 5.859375 Z M 16.863281 12.09375 "/>
</g>
</svg>
